svg/fluentui-system-icons/ic_fluent_clipboard_code_16_regular.svg

<svg width="16" height="16" viewBox="0 0 16 16" fill="none" xmlns="http://www.w3.org/2000/svg">
<path d="M5.08535 2C5.29127 1.4174 5.84689 1 6.5 1H9.5C10.1531 1 10.7087 1.4174 10.9146 2H11.5C12.3284 2 13 2.67157 13 3.5V7.49561C12.8322 7.49553 12.664 7.52345 12.503 7.57995C12.528 7.11911 12.3372 6.67672 12 6.37739V3.5C12 3.22386 11.7761 3 11.5 3H10.9146C10.7087 3.5826 10.1531 4 9.5 4H6.5C5.84689 4 5.29127 3.5826 5.08535 3H4.5C4.22386 3 4 3.22386 4 3.5V13.5C4 13.7761 4.22386 14 4.5 14H7.58766L7.56249 14.0881C7.47349 14.3996 7.48984 14.7162 7.59039 15H4.5C3.67157 15 3 14.3284 3 13.5V3.5C3 2.67157 3.67157 2 4.5 2H5.08535ZM6.5 2C6.22386 2 6 2.22386 6 2.5C6 2.77614 6.22386 3 6.5 3H9.5C9.77614 3 10 2.77614 10 2.5C10 2.22386 9.77614 2 9.5 2H6.5ZM9.36987 14.8419C9.28002 14.9377 9.15458 14.9956 9.02143 15C9.01081 15.0003 8.99972 15.0003 8.98902 15C8.94885 14.9987 8.90781 14.9924 8.86742 14.9809C8.83423 14.9714 8.80279 14.9588 8.77332 14.9435C8.67226 14.8908 8.59445 14.8061 8.54918 14.7061C8.50203 14.602 8.49015 14.4813 8.52401 14.3628L10.524 7.36277C10.5999 7.09725 10.8766 6.9435 11.1421 7.01937C11.4076 7.09523 11.5614 7.37197 11.4855 7.63749L9.48553 14.6375C9.46293 14.7166 9.42251 14.7858 9.36987 14.8419ZM7.37963 9.32101C7.55934 9.11135 7.53506 8.7957 7.3254 8.61599C7.11573 8.43628 6.80008 8.46056 6.62037 8.67022L5.12037 10.4202C4.95988 10.6075 4.95988 10.8838 5.12037 11.071L6.62037 12.821C6.80008 13.0307 7.11573 13.055 7.3254 12.8752C7.53506 12.6955 7.55934 12.3799 7.37963 12.1702L6.15854 10.7456L7.37963 9.32101ZM12.6746 12.8753C12.4649 12.6956 12.4407 12.3799 12.6204 12.1703L13.8415 10.7457L12.6204 9.32105C12.4407 9.11139 12.4649 8.79574 12.6746 8.61603C12.8843 8.43632 13.1999 8.4606 13.3796 8.67026L14.8796 10.4203C15.0401 10.6075 15.0401 10.8838 14.8796 11.0711L13.3796 12.8211C13.1999 13.0307 12.8843 13.055 12.6746 12.8753Z" fill="#212121"/>
</svg>

<svg xmlns="http://www.w3.org/2000/svg" width="16" height="16"><path d="M5.085 2A1.5 1.5 0 0 1 6.5 1h3a1.5 1.5 0 0 1 1.415 1h.585A1.5 1.5 0 0 1 13 3.5v3.996c-.168 0-.336.027-.497.084A1.503 1.503 0 0 0 12 6.377V3.5a.5.5 0 0 0-.5-.5h-.585A1.5 1.5 0 0 1 9.5 4h-3a1.5 1.5 0 0 1-1.415-1H4.5a.5.5 0 0 0-.5.5v10a.5.5 0 0 0 .5.5h3.088l-.026.088c-.089.312-.072.628.028.912H4.5A1.5 1.5 0 0 1 3 13.5v-10A1.5 1.5 0 0 1 4.5 2h.585ZM6.5 2a.5.5 0 0 0 0 1h3a.5.5 0 0 0 0-1h-3Zm2.87 12.842a.502.502 0 0 1-.82-.136.498.498 0 0 1-.026-.343l2-7a.5.5 0 1 1 .962.274l-2 7a.498.498 0 0 1-.116.205ZM7.38 9.32a.5.5 0 1 0-.76-.65l-1.5 1.75a.5.5 0 0 0 0 .65l1.5 1.75a.5.5 0 1 0 .76-.65l-1.221-1.425 1.22-1.425Zm5.295 3.554a.5.5 0 0 1-.055-.705l1.222-1.424L12.62 9.32a.5.5 0 1 1 .76-.65l1.5 1.75a.5.5 0 0 1 0 .65l-1.5 1.75a.5.5 0 0 1-.705.054Z"/></svg>
